X: 1
T: the Butcher's Apron
C: J.O'Neill
R: reel
Z: 2009 John Chambers <jc:trillian.mit.edu>
S: RSCDS Cincinnati music for holiday 2008
M: C|
L: 1/8
K: D
|: "D"d2AF d2AF | "G"Efed "A7"cABc \
|  "D"defe "G"dcdB |1,3 "D"AdAF "A7"EFGE :|2,4 "A7"ABAG "D"FDD2 ||
|: "D"a2fa dafa | "Em"b2gb ebgb \
| "D"a2fa dafa | "G"ge"D"fd "A7"ceef ||
| "D"a2fa dafa | "Em"b2gb ebgb \
| "D"agfe "G"dcdB | "A 7"ABAG "D"FDD2 :|
